symbols/web/battery_0_bar/materialsymbolsoutlined/battery_0_bar_wght200gradN25_48px.svg

<svg xmlns="http://www.w3.org/2000/svg" height="48" width="48"><path d="M17.2 41.5q-.6 0-.975-.375T15.85 40.1V10.75q0-.55.375-.95.375-.4.975-.4h3.45V6.55h6.75V9.4h3.45q.55 0 .95.4.4.4.4.95V40.1q0 .65-.4 1.025-.4.375-.95.375Zm.15-1.55H30.7v-29.1H17.35Z"/></svg>

<svg xmlns="http://www.w3.org/2000/svg" height="48" width="48"><path d="M17.2 41.5Q16.6 41.5 16.225 41.125Q15.85 40.75 15.85 40.1V10.75Q15.85 10.2 16.225 9.8Q16.6 9.4 17.2 9.4H20.65V6.55H27.4V9.4H30.85Q31.4 9.4 31.8 9.8Q32.2 10.2 32.2 10.75V40.1Q32.2 40.75 31.8 41.125Q31.4 41.5 30.85 41.5ZM17.35 39.95H30.7V10.85H17.35Z"/></svg>
